X:1
T:Chord Table Etude â€” 85 Voicings
T:Key of Eb
M:4/4
L:1/4
K:Eb
%%score {1 2}
%%pagewidth 27.94cm
%%pageheight 21.59cm
%%topmargin 0.7cm
%%botmargin 0.7cm
%%leftmargin 1.0cm
%%rightmargin 1.0cm
%%scale 0.65
%%staffsep 42
%%sysstaffsep 18
%%barsperstaff 6
%%notespacingfactor 1.3
%%gchordfont DejaVu Sans 13
%%annotationfont DejaVu Sans 11
%%barnumbers 0
V:1 clef=treble name="RH"
V:2 clef=bass name="LH"
[V:1] "^â‘ "z "^â‘ Â¹"[B,EG] "^â‘ Â²"[G,B,E] "^â‘ +8"z |
[V:2] "_133"[E,G,B,] "_543"z "_334"z "_1334"[E,G,B,E] |
[V:1] "^â‘ Î”"z "^â‘ Î”Â¹"[DEGB] "^â‘ Î”Â²"[B,DEG] "^â‘ Î”Â³"z |
[V:2] "_1333"[E,G,B,D] "_7233"z "_5323"z "_3332"[G,B,DE] |
[V:1] "^â‘ 6"z "^â‘ 6Â¹"[B,EGc] "^â‘ s2"[EFB] "^â‘ s4"z |
[V:2] "_1332"[E,G,B,C] "_5434"z "_124"z "_142"[E,A,B,] |
[V:1] "^â‘ s4+8"z "^â‘ Î”Â³"[DGBe] "^â‘£s2"[A,B,E] "^â‘£Â¹"z |
[V:2] "_1424"[E,A,B,E] "_7434"z "_424"z "_143"[E,A,C] |
[V:1] "^â‘£"z "^â‘£Â²"[CEA] "^â‘£+8"[A,CEA] "^â‘£Î”"z |
[V:2] "_433"[A,CE] "_634"z "_4334"z "_4333"[A,CEG] |
[V:1] "^â‘£Î”Â²"z "^â‘£Î”Â¹"[G,A,CE] "^â‘£Î”Â³"[CEGA] "^â‘£Î”Â³"z |
[V:2] "_1323"[E,G,A,C] "_3233"z "_6332"z "_3434"[G,CEA] |
[V:1] "^â‘£6"z "^â‘£6Â¹"[E,A,CF] "^â‘¤Â¹"[FBd] "^â‘¤"z |
[V:2] "_4332"[A,CEF] "_1434"z "_243"z "_533"[B,DF] |
[V:1] "^â‘¤Â²"z "^â‘¤+8"[B,DFB] "^â‘¤7"[B,DFA] "^â‘¤7Â¹"z |
[V:2] "_734"[D,F,B,] "_5334"z "_5333"z "_4233"[A,B,DF] |
[V:1] "^â‘¤7Â²"z "^â‘¤7Â³"[DFAB] "^â‘¤7Â³"[A,DFB] "^â‘¤6"z |
[V:2] "_2323"[F,A,B,D] "_7332"z "_4434"z "_5332"[B,,D,F,G,] |
[V:1] "^â‘¤6Â¹"z "^â‘¤s2"[B,CF] "^â‘¤s4"[B,EF] "^â‘¤s4+8"z |
[V:2] "_2434"[F,B,DG] "_524"z "_542"z "_5424"[B,,E,F,B,] |
[V:1] "^â‘¤q"z "^â‘¡m"[FAc] "^â‘¡mÂ¹"[CFA] "^â‘¡mÂ²"z |
[V:2] "_544"[B,,E,A,] "_233"z "_643"z "_434"[A,CF] |
[V:1] "^â‘¡m+8"z "^â‘¡m7"[F,A,CE] "^â‘¡m7Â¹"[EFAc] "^â‘¡m7Â²"z |
[V:2] "_2334"[F,A,CF] "_2333"z "_1233"z "_6323"[C,E,F,A,] |
[V:1] "^â‘¡m6"z "^â‘¡m6Â¹"[CFAd] "^â‘¡s2"[FGc] "^â‘¡s4"z |
[V:2] "_2332"[F,A,CD] "_6434"z "_224"z "_242"[F,B,C] |
[V:1] "^â‘¡s4+8"z "^â‘¡q"[F,B,E] "^â‘¡q7"[F,B,EA] "^â‘¢m"z |
[V:2] "_2424"[F,B,CF] "_244"z "_2444"z "_333"[G,B,D] |
[V:1] "^â‘¢mÂ¹"z "^â‘¢mÂ²"[B,DG] "^â‘¢m+8"[G,B,DG] "^â‘¢m7"z |
[V:2] "_743"[D,G,B,] "_534"z "_3334"z "_3333"[G,B,DF] |
[V:1] "^â‘¢m7Â¹"z "^â‘¢m7Â²"[DFGB] "^â‘¢s4"[G,CD] "^â‘¢q"z |
[V:2] "_2233"[F,G,B,D] "_7323"z "_342"z "_344"[G,CF] |
[V:1] "^â‘¢q7"z "^â‘¥m"[CEG] "^â‘¥mÂ¹"[G,CE] "^â‘¥mÂ²"z |
[V:2] "_3444"[G,,C,F,B,] "_633"z "_343"z "_134"[E,G,C] |
[V:1] "^â‘¥m+8"z "^â‘¥m7"[CEGB] "^â‘¥m7Â¹"[B,CEG] "^â‘¥m7Â²"z |
[V:2] "_6334"[C,E,G,C] "_6333"z "_5233"z "_3323"[G,B,CE] |
[V:1] "^â‘¥s4"z "^â‘¥s2"[CDG] "^â‘¥q"[CFB] "^â‘¥q7"z |
[V:2] "_642"[C,F,G,] "_624"z "_644"z "_6444"[C,F,B,E] |
[V:1] "^â‘¦Â°Â¹"z "^â‘¦Â°"[DFA] "^â‘¦Â°Â²"[FAd] "^â‘¦+8"z |
[V:2] "_443"[A,DF] "_733"z "_234"z "_7334"[D,F,A,D] |
[V:1] "^â‘¦Ă¸7Â²"z "^â‘¦Ă¸7"[DFAc] "^â‘¦Ă¸7Â¹"[CDFA] "^â‘¦q"z |
[V:2] "_4323"[A,CDF] "_7333"z "_6233"z "_744"[D,G,C] |
[V:1] "^â‘¦q7"z z z "^â‘ "z |
[V:2] "_7444"[D,G,CF] z z "_133"[E,G,B,] |